X: 284
T: Benim Sen Nemsin Ey Dilber
C: Ahmet Rasim Bey
O: Turkey
F: http://compmusic.upf.edu/node/140
N: segah--sarki--aksak--benim_sen--ahmet_rasim_bey
N: makam= segah
N: form= sarki
N: usul= aksak = 9/8
M: 9/8
L: 1/16
K: C _1/4B _1/4e ^f 
Q: 1/4=204
%%MIDI tuningsystem comma53
cB^A2 B2c2 A2B2 G2F2 G2 | ^A2 GAB2 ABc2 Bcd6  | \
w:  ARANAĞME  |   | 
g3=f f3e e3d dedc B^A | 
w:   | 
Bc de=f2 eddc cBB6  | cB^A2 B2c2 A2B2 G2F2 G2 | 
w:   |  ARANAĞME  | 
^A2 GAB2 ABc2 Bcd6  | g3=f f3e e3d dedc B^A | 
w:   |   | 
Bc de=f2 eddc cBB3c^Ac  | B4 B2B2 B4 B6 | \
w:   |  *  Be nim  sen  nem  | 
B4B4c4d4ed  | 
w:  sin  ey  dil ber    | 
d3c B2B2 B4 B6 | B4B4c4d4ed  | d2z2 g2g=f f3e e4 d2 | 
w:  *  *  Be nim  sen  nem  |  sin  ey  dil ber    |  *  De li  *  gön *  lüm   | 
d2 e4 d2d3cB4c2  | d8 GABc d2z4 | d2 cde3dd2 cde4d2  | 
w:  se ni  *  is *  ter   Yâr   |  ey  SAZ  |  yâr   | 
z2g2 =f2e2 d2c2 d2c2 cB | B4z2 BcB^3/4A GAB3cBc  | 
w:  yâr  *  *  *  *  *  *  a  |  man   SAZ  | 
d4 d2cB c2_2/4BA A4 B2 | G2 g2=f2 e2d2 c2d2 cccB  | \
w:  *  De li  *  gön *  *  lüm   |  se ni  *  *  is  | 
B6ag gff^3/4e f3g eg | 
w:  ter   SAZ  | 
f4f2 f2f4f4z2  | ^3/4e2f2 g2a2 g2f2 g4 f=e | \
w:  *  Zan ne der ler   |  et *  *  miş  ez *  ber    | 
d4f2 f2f4f4z2  | 
w:  *  Zan ne der ler   | 
^3/4e2f2 g2a2 g2f2 g4 f=e | d4g2 g=ff2 e2e4d2  | \
w:  et *  *  miş  ez *  ber    |  *  Se ni  *  söy *  ler   | 
d2e4d2 d3c B4 c2 | 
w:  se ni  *  is *  ter   Yâr   | 
d8GA Bcd2 z4  | d2cd e3d d2cd e4 d2 | \
w:  ey  SAZ  |  yâr   | 
z2 g2=f2 e2d2 c2d2 c2cB  | 
w:  yâr  *  *  *  *  *  *  a  | 
B6Bc B^3/4AGA B3c Bc | d4d2 cBc2 _2/4BAA4B2  | \
w:  man   SAZ  |  *  De li  *  gön *  *  lüm   | 
G2g2 =f2e2 d2c2 ddcc cB | 
w:  se ni  *  *  is  | 
B6 BcB^3/4A GAB6  | cB^A2 B2c2 A2B2 G2F2 G2 | \
w:  ter   SAZ  |  ARANAĞME  | 
^A2 GAB2 ABc2 Bcd6  | 
w:   | 
g3=f f3e e3d dedc B^A | Bc de=f2 eddc cBB6  | 
w:   |   | 
cB^A2 B2c2 A2B2 G2F2 G2 | ^A2 GAB2 ABc2 Bcd6  | \
w:  ARANAĞME  |   | 
g3=f f3e e3d dedc B^A | 
w:   | 
Bc de=f2 eddc cBB3c^Ac  | B4 B2B2 B4 B6 | \
w:   |  *  Be nim  sen  nem  | 
B4B4c4d4ed  | 
w:  sin  ey  dil ber    | 
d3c B2B2 B4 B6 | B4B4c4d4ed  | d2z2 g2g=f f3e e4 d2 | 
w:  *  *  Be nim  sen  nem  |  sin  ey  dil ber    |  *  De li  *  gön *  lüm   | 
d2 e4 d2d3cB4c2  | d8 GABc d2z4 | d2 cde3dd2 cde4d2  | 
w:  se ni  *  is *  ter   Yâr   |  ey  SAZ  |  yâr   | 
z2g2 =f2e2 d2c2 d2c2 cB | B4z2 BcB^3/4A GAB3cBc  | 
w:  yâr  *  *  *  *  *  *  a  |  man   SAZ  | 
d4 d2cB c2_2/4BA A4 B2 | G2 g2=f2 e2d2 c2d2 cccB  | \
w:  *  De li  *  gön *  *  lüm   |  se ni  *  *  is  | 
B6ag gff^3/4e f3g eg | 
w:  ter   SAZ  | 
f4f2 f2f4f4z2  | ^3/4e2f2 g2a2 g2f2 g4 f=e | \
w:  *  Zan ne der ler   |  et *  *  miş  ez *  ber    | 
d4f2 f2f4f4z2  | 
w:  *  Zan ne der ler   | 
^3/4e2f2 g2a2 g2f2 g4 f=e | d4g2 g=ff2 e2e4d2  | \
w:  et *  *  miş  ez *  ber    |  *  Se ni  *  söy *  ler   | 
d2e4d2 d3c B4 c2 | 
w:  se ni  *  is *  ter   Yâr   | 
d8GA Bcd2 z4  | d2cd e3d d2cd e4 d2 | \
w:  ey  SAZ  |  yâr   | 
z2 g2=f2 e2d2 c2d2 c2cB  | 
w:  yâr  *  *  *  *  *  *  a  | 
B6Bc B^3/4AGA B3c Bc | d4d2 cBc2 _2/4BAA4B2  | \
w:  man   SAZ  |  *  De li  *  gön *  *  lüm   | 
G2g2 =f2e2 d2c2 ddcc cB | 
w:  se ni  *  *  is  | 
B6 BcB^3/4A GAB6  | |


